X:1
T:Title
%%score { ( 1 3 ) | 2 }
L:1/8
M:6/8
K:Ab
V:1 treble nm="Grand Piano"
V:3 treble 
V:2 bass 
V:1
 z3 z2[Q:1/4=100] [CE]/[CE]/ | [CE]2 [CE] [CE][_C=D][=CE] | [CA]2 [DA] [CA]2 [EA] | %3
 BBB [EA]2 [EB] |[M:5/8] [Ec]-[Ec]- [Ec]3 |[M:1/8] [Ec] |[M:3/4] [Fd]2 [Fd][Fd] [DF][Fd] | %7
 d2 c c2 [Ec] | [EB][EB] [EB] [=DB]2 [Dc] |[M:15/16] B3 d3/2- d3 |[M:3/4] c>[DB] [CA] [CA]3 | %11
 [DA]>[EG] F F3 | EE [EA] [EB]2 [Ec] | B4- BB | c2 d e2 c |[M:7/8] B2 [Ec] [Fd]3 B | %16
[M:3/4] AA E c2 B |[M:5/8] [CA]-[CA]- [CA]3 |] %18
V:2
 z3 z2 [A,,A,]/[A,,A,]/ | [A,,A,]2 [A,,A,] [A,,A,][A,,A,][A,,A,] | %2
 [A,,E,]2 [A,,E,] [A,,E,]2 [C,A,] | [E,G,E][E,G,E][E,G,E] [C,A,]2 [B,,G,] | %4
[M:5/8] [A,,A,]-[A,,A,]- [A,,A,]3 |[M:1/8] [A,,A,] |[M:3/4] [D,A,]2 [D,A,][D,A,] [D,A,][D,A,] | %7
 [A,F]2 [A,E][K:bass] [A,E]2 [A,,A,] | [B,,G,][B,,G,] [B,,G,] [B,,F,]2 [A,,A,] | %9
[M:15/16] [E,G,]3 [F,B,]3/2- [F,B,]3 |[M:3/4] [A,E]>[A,,E,] [A,,E,] [A,,E,]3 | %11
 [D,F,]>[D,G,] [D,A,D] [D,A,D]3 | [C,A,][C,A,] [C,A,] [B,,G,]2 [A,,A,] | [E,G,E]4- [E,G,E][E,G,E] | %14
 [A,E]2 [A,B,E] [A,CE]2 [A,E] |[M:7/8] [D,F,D]2 [C,=A,] [B,,B,]3 [D,F,D] | %16
[M:3/4] [E,C][E,C] [E,C] [E,A,E]2 [E,G,D] |[M:5/8] [A,,A,]-[A,,A,]- [A,,A,]3 |] %18
V:3
 x6 | x6 | x6 | x6 |[M:5/8] x5 |[M:1/8] x |[M:3/4] x6 | x6 | x6 |[M:15/16] E3/2-E3/2-E3/2- E3 | %10
[M:3/4] x6 | x6 | x6 | x6 | x6 |[M:7/8] x7 |[M:3/4] x6 |[M:5/8] x5 |] %18

